X:1
T:Title
%%score { ( 1 3 ) | ( 2 4 ) }
L:1/8
M:4/4
K:Db
V:1 treble nm="Grand Piano"
V:3 treble 
V:2 bass 
V:4 bass 
V:1
 z4 z2[Q:1/4=100] F>G | B2 A2 F2 D2 | [DA]2 [CA]4 [CE]>[CF] | [CA]2 [B,CG]2 [A,CF]2 [A,CE]2 | %4
[M:3/4] [A,DA]6 |[M:1/4] [Fd]>[Ac] |[M:4/4] z2 A2 z4 | G4 z4 | E2 E2 F2 =G2 |[M:3/4] [CA]6 | %10
[M:1/4] A>B |[M:4/4] c2 c4 B>c | [GB]2 [FA]4 [FA]>[GB] | [CFA]2 [CEG]2 [CE]2 [CGB]2 | %14
[M:3/4] [FA]6 |[M:1/4] [DFA]>[FB] |[M:4/4] [Gc]2 c4 B>c | e2 d4 [DF][DF] | E2 F2 G2 [FA]2 | %19
[M:2/4] B2 z2 | d2 =d2 |[M:4/4] e2 B2 z2 =A>B | d2 A2 z2 FG[Q:1/4=99] | %23
 A2 g2 f2[Q:1/4=88] e2[Q:1/4=97][Q:1/4=96][Q:1/4=94][Q:1/4=93][Q:1/4=91][Q:1/4=90][Q:1/4=87][Q:1/4=85] | %24
[M:3/4] d6[Q:1/4=84][Q:1/4=82][Q:1/4=81][Q:1/4=79][Q:1/4=78][Q:1/4=76] |] %25
V:2
 z4 z2 F,>G, | B,2 A,2 F,2 D,2 | [A,,F,]2 [A,,E,]4 [A,,G,]>[A,,F,] | [A,,E,]2 A,,2 A,,2 G,2 | %4
[M:3/4] F,6 |[M:1/4] [D,A,]>[F,D] |[M:4/4] [G,DG]2 .[F,D]2 [_F,B,D]2 [=F,A,D]2 | %7
 [B,D]2 A,2 [D,A,D]2 [B,,B,]>[B,,B,] | [E,=G,D]2 [E,G,D]2 [E,A,C]2 [E,B,D]2 |[M:3/4] [A,,A,]6 | %10
[M:1/4][K:treble] [A,C]>[A,D=G] |[M:4/4] [A,EG]2 [A,EG]4 [A,CG]>[A,CG] | %12
 [D,D]2 [D,D]4 [D,D]>[D,D] | [A,,A,]2 [A,,A,]2 [A,,A,]2 [A,,A,]2 |[M:3/4] D>D C>B, A,2 | %15
[M:1/4] D,>[D,A,] |[M:4/4] [E,A,]2[K:treble] [A,EG]4 [A,CG]>[A,CG] | %17
 [=A,CG]2 [B,F]4[K:bass] [B,,B,][B,,B,] | [G,B,]2 [F,B,=D]2 [E,B,E]2 [D,_D]2 | %19
[M:2/4] [DG]B, [F,=A,E]2 | [B,F]2 [A,B,F]2 |[M:4/4] [G,B,G]2 [A,EG]2 z2 [=G,D_F]>[G,DF] | %22
 [A,DF]2 [A,DF]2 z2[K:bass] F,G, | A,2 [A,,A,B,CG]2 [A,,A,CF]2 [A,,G,CE]2 |[M:3/4] [D,F,A,D]6 |] %25
V:3
 x8 | x8 | x8 | x8 |[M:3/4] x6 |[M:1/4] x2 |[M:4/4] B2 z A, =G2 A2 | z2 C2 F2 [DF]>[DF] | x8 | %9
[M:3/4] x6 |[M:1/4] x2 |[M:4/4] x8 | x8 | x8 |[M:3/4] x6 |[M:1/4] x2 |[M:4/4] x8 | x8 | x8 | %19
[M:2/4] z D c2 | x4 |[M:4/4] x8 | x8 | x8 |[M:3/4] x6 |] %25
V:4
 x8 | x8 | x8 | x8 |[M:3/4] x6 |[M:1/4] x2 |[M:4/4] x8 | E,4 z4 | x8 |[M:3/4] x6 | %10
[M:1/4][K:treble] x2 |[M:4/4] x8 | x8 | x8 |[M:3/4] D,6 |[M:1/4] x2 |[M:4/4] x2[K:treble] x6 | %17
 x6[K:bass] x2 | x8 |[M:2/4] G,2 z2 | x4 |[M:4/4] x8 | x6[K:bass] x2 | x8 |[M:3/4] x6 |] %25

